assets/2023/icons/goMod.svg

<!-- Copyright 2000-2023 JetBrains s.r.o. and contributors. Use of this source code is governed by the Apache 2.0 license. -->
<svg width="16" height="16" viewBox="0 0 16 16" fill="none" xmlns="http://www.w3.org/2000/svg">
<path d="M11.4371 2.84229L11.452 2.87865L11.4674 2.87233C12.2161 3.62035 12.7236 4.64494 12.7552 5.79008C12.7757 6.53098 12.7867 7.26572 12.7882 8H11C9.34315 8 8 9.34315 8 11V14C8 14.0883 8.00381 14.1757 8.01129 14.2621H7.14406C5.0751 14.2621 3.31298 12.8569 3.24027 10.5037C3.19196 8.94051 3.19196 7.35389 3.24027 5.79073C3.31328 3.42766 5.36628 1.61133 7.42503 1.61133H8.59884C9.62659 1.61133 10.6584 2.07866 11.4371 2.84229Z" fill="#99D6FA"/>
<path d="M12.3679 3.69699L12.3552 3.69816C12.1625 3.36666 11.9299 3.06204 11.6673 2.79035L12.5399 2.43249C12.6775 2.37605 12.8359 2.41586 12.9304 2.53067C13.0308 2.65245 13.0339 2.82734 12.9379 2.95261L12.3679 3.69699Z" fill="#99D6FA"/>
<path d="M3.64139 3.69797C3.63457 3.69766 3.62775 3.69718 3.62095 3.69652L3.0451 2.95621C2.94822 2.83166 2.95001 2.65676 3.04942 2.53422C3.14313 2.41871 3.30116 2.37771 3.43921 2.43312L4.32927 2.79033C4.06648 3.06157 3.83404 3.36616 3.64139 3.69797Z" fill="#99D6FA"/>
<path d="M7.30156 4.83828C7.30156 5.76247 6.56724 6.51152 5.66152 6.51152C4.75581 6.51152 4.02148 5.76247 4.02148 4.83828C4.02148 3.91409 4.75581 3.16504 5.66152 3.16504C6.56724 3.16504 7.30156 3.91409 7.30156 4.83828Z" fill="white"/>
<path d="M11.9715 4.83828C11.9715 5.76247 11.2372 6.51152 10.3314 6.51152C9.42532 6.51152 8.69141 5.76247 8.69141 4.83828C8.69141 3.91409 9.42532 3.16504 10.3314 3.16504C11.2372 3.16504 11.9715 3.91409 11.9715 4.83828Z" fill="white"/>
<path d="M7.63281 7.58354V6.976C7.77636 7.0216 7.94299 7.04771 8.12067 7.04771C8.29902 7.04771 8.46621 7.02144 8.61011 6.97559V7.58354H7.63281Z" fill="white"/>
<path fill-rule="evenodd" clip-rule="evenodd" d="M3.52844 3.90364C3.23791 4.46901 3.06097 5.10509 3.03998 5.78436C3.00892 6.78954 2.99778 7.80438 3.00656 8.8165L2.21143 9.61163C1.94775 9.8753 1.94775 10.3028 2.21143 10.5665C2.43824 10.7933 2.78628 10.825 3.04698 10.6616C3.11301 11.7352 3.52122 12.6132 4.14397 13.2538L3.72593 13.9778C3.5106 14.3508 3.63839 14.8277 4.01134 15.043C4.38429 15.2583 4.86118 15.1305 5.0765 14.7576L5.4394 14.129C5.96279 14.3474 6.54151 14.4619 7.14367 14.4619H8.03533C8.02514 14.3959 8.01709 14.3292 8.01127 14.2619H7.14367C5.07472 14.2619 3.3126 12.8567 3.23988 10.5035L3.23956 10.4932L4.01666 9.71607L3.87544 9.57483L3.02504 10.4252C2.84452 10.6058 2.55488 10.6107 2.36842 10.4399C2.36315 10.4351 2.35795 10.4302 2.35285 10.425C2.16728 10.2395 2.16728 9.93861 2.35285 9.75305L3.20344 8.90283L3.2074 8.9068C3.19713 7.86682 3.20796 6.82356 3.23988 5.79053C3.3129 3.42747 5.3659 1.61113 7.42465 1.61113H8.59846C9.6262 1.61113 10.658 2.07847 11.4367 2.8421L11.4516 2.87846L11.467 2.87213C12.2157 3.62016 12.7232 4.64474 12.7548 5.78989C12.7753 6.53085 12.7863 7.26565 12.7878 8H12.9878C12.9863 7.26381 12.9753 6.52716 12.9548 5.78436C12.936 5.10547 12.7579 4.46709 12.4646 3.89887L13.0963 3.07402C13.2488 2.87489 13.2439 2.5969 13.0844 2.40331C12.9341 2.22081 12.6824 2.15754 12.4636 2.24725L11.5124 2.63737C10.7054 1.87498 9.65217 1.41113 8.59846 1.41113H7.42465C6.35757 1.41113 5.29585 1.87275 4.48424 2.63698L3.51332 2.24731C3.29388 2.15924 3.04267 2.2244 2.89371 2.40803C2.7357 2.60282 2.73285 2.88083 2.88685 3.07881L3.52844 3.90364ZM3.63277 3.71202C3.82701 3.37468 4.06234 3.06526 4.32889 2.79014L3.43882 2.43292C3.30078 2.37752 3.14274 2.41851 3.04903 2.53403C2.94962 2.65657 2.94784 2.83147 3.04471 2.95602L3.63277 3.71202ZM11.6669 2.79015L12.5395 2.4323C12.6771 2.37586 12.8355 2.41566 12.9301 2.53047C13.0304 2.65226 13.0335 2.82714 12.9376 2.95241L12.3597 3.70696C12.1661 3.37205 11.9319 3.06424 11.6669 2.79015ZM3.89913 14.0778L4.2918 13.3977C4.53631 13.623 4.80974 13.815 5.10464 13.9711C5.15441 13.9974 5.20522 14.023 5.2562 14.0473L4.90371 14.6578C4.7467 14.9297 4.40265 15.0264 4.12788 14.879C4.12233 14.876 4.11682 14.8729 4.11134 14.8698C3.83404 14.7097 3.73904 14.3551 3.89913 14.0778Z" fill="black"/>
<path d="M5.92915 4.83735C5.92915 5.26451 5.58948 5.61122 5.17042 5.61122C4.75178 5.61122 4.41211 5.26451 4.41211 4.83735C4.41211 4.41019 4.75178 4.06348 5.17042 4.06348C5.58948 4.06348 5.92915 4.41019 5.92915 4.83735Z" fill="black"/>
<path d="M11.5854 4.83735C11.5854 5.26451 11.2457 5.61122 10.8271 5.61122C10.408 5.61122 10.0684 5.26451 10.0684 4.83735C10.0684 4.41019 10.408 4.06348 10.8271 4.06348C11.2457 4.06348 11.5854 4.41019 11.5854 4.83735Z" fill="black"/>
<path d="M8.16897 6.51183C8.41667 6.51338 8.60871 6.51458 8.60871 6.23446C8.60871 5.9332 8.38658 5.68945 8.11197 5.68945C7.83776 5.68945 7.61523 5.9332 7.61523 6.23446C7.61523 6.51458 7.80762 6.51338 8.05506 6.51183L8.11197 6.51159L8.16897 6.51183Z" fill="black"/>
<path d="M8.16897 6.51184C8.41667 6.51339 8.60871 6.51459 8.60871 6.23447C8.60871 6.16485 8.59684 6.09829 8.57521 6.03711C8.88559 6.12691 9.0972 6.3058 9.0972 6.51175C9.0972 6.80779 8.65999 7.04792 8.12067 7.04792C7.58174 7.04792 7.14453 6.80779 7.14453 6.51175C7.14453 6.31018 7.34724 6.13453 7.64675 6.04295C7.62638 6.10252 7.61523 6.16706 7.61523 6.23447C7.61523 6.51459 7.80762 6.51339 8.05506 6.51184L8.11197 6.5116L8.16897 6.51184Z" fill="#CCA18A"/>
<path d="M2.35304 9.75324L3.20344 8.90284L3.87544 9.57484L3.02504 10.4252C2.83948 10.6108 2.53861 10.6108 2.35304 10.4252C2.16748 10.2397 2.16748 9.9388 2.35304 9.75324Z" fill="#CCA18A"/>
<path d="M4.29222 13.3979L3.89955 14.078C3.73945 14.3553 3.83446 14.7099 4.11175 14.87C4.38904 15.0301 4.74361 14.9351 4.90371 14.6578L5.2562 14.0473C4.90296 13.879 4.5781 13.6614 4.29222 13.3979Z" fill="#CCA18A"/>
<rect x="9.5" y="9.5" width="6" height="6" rx="1.5" fill="#EDF3FF" stroke="#3574F0"/>
</svg>

<svg xmlns="http://www.w3.org/2000/svg" width="16" height="16" fill="none" viewBox="0 0 16 16"><path fill="#99D6FA" d="m11.437 2.842.015.037.015-.007c.75.748 1.257 1.773 1.288 2.918q.03 1.11.033 2.21H11a3 3 0 0 0-3 3v3q0 .132.011.262h-.867c-2.069 0-3.831-1.405-3.904-3.758a77 77 0 0 1 0-4.713c.073-2.363 2.126-4.18 4.185-4.18h1.174c1.028 0 2.06.468 2.838 1.231m.931.855-.013.001a4.7 4.7 0 0 0-.688-.908l.873-.358a.34.34 0 0 1 .398.52z"/><path fill="#99D6FA" d="m3.641 3.698-.02-.001-.576-.74a.34.34 0 0 1 .394-.524l.89.357a4.7 4.7 0 0 0-.688.908"/><path fill="#fff" d="M7.302 4.838c0 .924-.735 1.674-1.64 1.674-.906 0-1.64-.75-1.64-1.674s.734-1.673 1.64-1.673 1.64.75 1.64 1.673m4.67 0c0 .924-.735 1.674-1.64 1.674-.907 0-1.64-.75-1.64-1.674s.733-1.673 1.64-1.673c.905 0 1.64.75 1.64 1.673M7.633 7.584v-.608c.143.046.31.072.488.072s.345-.027.49-.072v.608z"/><path fill="#000" fill-rule="evenodd" d="M3.528 3.904a4.4 4.4 0 0 0-.488 1.88 77 77 0 0 0-.033 3.032l-.796.796a.675.675 0 0 0 .836 1.05c.066 1.073.474 1.951 1.097 2.592l-.418.724a.78.78 0 0 0 1.35.78l.363-.629a4.4 4.4 0 0 0 1.705.333h.891a3 3 0 0 1-.024-.2h-.867c-2.07 0-3.831-1.405-3.904-3.758v-.01l.777-.778-.142-.141-.85.85a.475.475 0 1 1-.672-.672l.85-.85.004.004c-.01-1.04.001-2.083.033-3.116.073-2.364 2.126-4.18 4.185-4.18h1.173c1.028 0 2.06.467 2.839 1.231l.015.036.015-.006c.749.748 1.256 1.773 1.288 2.918q.03 1.11.033 2.21h.2a87 87 0 0 0-.033-2.216 4.4 4.4 0 0 0-.49-1.885l.631-.825a.54.54 0 0 0-.632-.827l-.952.39c-.807-.762-1.86-1.226-2.914-1.226H7.425c-1.067 0-2.13.462-2.94 1.226l-.972-.39a.54.54 0 0 0-.626.832zm.105-.192a4.7 4.7 0 0 1 .696-.922l-.89-.357a.34.34 0 0 0-.394.523zm8.034-.922.873-.358a.34.34 0 0 1 .398.52l-.578.755a4.7 4.7 0 0 0-.693-.917M3.899 14.078l.393-.68a3.9 3.9 0 0 0 .964.65l-.352.61a.58.58 0 0 1-1.005-.58" clip-rule="evenodd"/><path fill="#000" d="M5.93 4.837c0 .428-.34.774-.76.774a.766.766 0 0 1-.758-.774c0-.427.34-.774.758-.774.42 0 .76.347.76.774m5.655 0c0 .428-.34.774-.758.774a.766.766 0 0 1-.759-.774c0-.427.34-.774.76-.774.418 0 .757.347.757.774M8.169 6.512c.248.001.44.003.44-.278 0-.3-.222-.545-.497-.545-.274 0-.497.244-.497.545 0 .28.193.28.44.278z"/><path fill="#CCA18A" d="M8.169 6.512c.248.001.44.003.44-.278a.6.6 0 0 0-.034-.197c.31.09.522.269.522.475 0 .296-.437.536-.976.536-.54 0-.976-.24-.976-.536 0-.202.202-.377.502-.469a.6.6 0 0 0-.032.191c0 .28.193.28.44.278zM2.353 9.753l.85-.85.672.672-.85.85a.475.475 0 1 1-.672-.672m1.939 3.645-.392.68a.58.58 0 0 0 1.004.58l.352-.61a3.9 3.9 0 0 1-.964-.65"/><rect width="6" height="6" x="9.5" y="9.5" fill="#EDF3FF" stroke="#3574F0" rx="1.5"/></svg>
